X: 51
T: No_56_Song_of_Fortynine_Dance_(c).krn
N: Derived from No_56_Song_of_Fortynine_Dance_(c).krn
%%abc-version 2.0
%%abcx-abcm2ps-target-version 5.9.1 (29 Sep 2008)
%%abc-creator hum2abc beta
%%abcx-conversion-date 2019/03/15 08:25:35
%%humdrum-veritas 947399445
%%humdrum-veritas-data 1070227210
%%linebreak <none>
%%barnumbers 0
L: 1/8
M: 3/4
K: E clef=bass
[K:clef=bass][M:3/4]E,4E, z ]|:  
[M:2/4](3EEE B,B, | 
[M:3/4]E4z2 | 
(3EEE B,C F,G, | 
[M:3/8]E,2F,/F,/ | 
[M:3/4]G,7/F,/ F,/F,/E,/ z/ | 
E,4E, z | 
[M:2/4](3EEE B,B, | 
[M:3/4]E4z2 | 
(3EEE B,C F,G, | 
[M:3/8]E,2F,/F,/ | 
[M:3/4](G,7/F,/) F,/F,/E,/ z/ | 
E,4E, z | 
G,G, F,E,- E,E,/E,/ | 
(G,7/F,/) F,/F,/E,/ z/ | 
E,4E, z | 
G,G, F,E,- E,F,/F,/ | 
(G,7/F,/) F,/F,/E,/ z/ | 
E,4E, z | 
[M:2/4](3E,E,E, B,,F, | 
E,2B,,B,, | 
B,,2B,, z [I:setbarnb 23]| 
[M:3/4]B,,4B,, z :|]  
[M:3/4]B,,4B,, z |]  



